X: 10792
T: the WELCH HARPER
Q: "Andantino"
%R: jig, waltz
B: "Edinburgh Repository of Music" v.1 p.79 #2
F: http://digital.nls.uk/special-collections-of-printed-music/pageturner.cfm?id=87776133
Z: 2015 John Chambers <jc:trillian.mit.edu>
N: The 2nd strain has initial repeat but no final repeat; not fixed.
M: 6/8
L: 1/8
K: Bb
FFF |\
B2B (cBc) | d3 (fed) | dcB ABG | F3 FFF |\
B2B cBc | d2d (fed) | dcB (ABG) | F3 :|\
|: cfc |
(cB)A (GA)B | A2F c2c | dcd =ede | Hf2F edc |\
B2B (edc) | B3 FGA | B2c (de)c | {FBd}Hf3 FGA |\
B2(d/f/) edc | B3 |]
